X: 1032
T: SAILOR'S QUICK-STEP
C: S. Knaebel
B: Oliver Ditson "The Boston Collection of Instrumental Music" 1910 p.103 #2
F: http://conquest.imslp.info/files/imglnks/usimg/8/8f/IMSLP175643-PMLP309456-bostoncollection00bost_bw.pdf
%: 2012 John Chambers <jc:trillian.mit.edu>
M: 2/4
L: 1/16
K: G
d2 |\
d6 ef | g2a2 b4 | c'2e2 a3g | f2e2 d2d2 |\
d6 ef | g2a2 b4 | e2a2 gfef | g6 :|
|: b2 |\
b4 g2e2 | B6 b2 | c'b^ab =agfg | e6 a2 |\
a4 g2e2 | d6 f2 | e2 b2a2 ^c2 | d4 z2d2 |
d6 ef | g2a2 b4 | c'2e2 a3g | f2e2d2 d2 |\
d6 ef | g2a2 b4 | e2a2 gfef | g6 H:|
|: [K:C] g2 |\
c'6 b2 | c'2b2 c'2b2 | a6 ^g2 | a2^g2 a2=g2 |\
f6 a2 | g2c'2 e2e2 | d2f2 a2g2 | "^da Capo"c4 z2 :|

%%sep 1 1 500
%%sep 1 1 500
